X: 29510
T: Nine Pint Coggie, The
R: reel
M: 4/4
K: Edorian
|:F|E/E/E EF E2 DB|AFED FAAd|BdAB defe|dD D/D/D FE E:|
F|Eeef e2 de|f2 ed Bdde|Beef edef|afed e/e/e ef|
abaf defe|dBAF ABde|faef deBd|dD D/D/D FE E||

